X:1
T:I Can't Find Brummagem
M:4/4
L:1/4
K:G
 D| D G F G| A B G2| z G A A| B/2A/2 G2 D| D G F G| A B G2| z G A A|\
 B/2A/2 G2| d| d d d B| c c c2| c B A G/2G/2| F E D3/2 d/2| d B c A|\
 B G A3/2 D/2| G2 A A| B/2A/2 G2||
